!!!OTL: Rache im Zweikampf Pres de chez nous il-y-a un capitaine
!!!ARE: Europa, Mitteleuropa, franzoesische Schweiz, Wallis
!!!YOR: 5, S. 105
!!    1917 gedruckt in Bale und Lausanne
!!!SCT: Q2097C
!!!YEM: Copyright 1995, estate of Helmut Schaffrath.
**kern
*ICvox
*Ivox
*M6/8
*k[]
*C:
=1
{8cc
8cc
8cc
8dd
8cc
8b
=2
8cc
8b
8a
4g
8e}
=3
{8cc
8cc
8cc
8dd
8cc
8b
=4
8cc
8b
8a
4g}
{8g
=5
4g
8f
4.e
=6
8g
8cc
8dd
8ee
8dd
8ee
=7
4.dd
4cc}
{16ee
16ee
=8
4dd
8cc
4.g
=9
8dd
8ee
8dd
4a
8b
=10
2.cc}
==
!!!AGN: Ballade, Frau in Maennerkleidung, Soldat, Betrug, Rache
!! Schweizerische Fassung der Ballade.
!!!ONB: ESAC (Essen Associative Code) Database: BALLADE
!!!AMT: compound duple
!!!AIN: vox
!!!EED: Helmut Schaffrath
!!!EEV: 1.0
*-
